X: 1
T: Maailman Matti
O: trad Finland
R: shottish
M: C
L: 1/8
K: G
G>B | "G"d2 de dc BA | G2 B2 d2 gg | "D7"ff d>d e2 f2 | "G"g2 z2 z2 :|
y2g2 | "C"e2 c>c e2 g2 | "G"d4 z2 d>d | "D7"c2 AB c2 e2 | "G"d4 z2 ||
|: dd | "G"g2 g2 b2 gf | "C"ef ge "G"d2 Bc | "D"d2 ec B2 A2 | "G"G4 z2 :|
